X:1
T:Solvirkning
T:Solvirkning 
T:(J.S Welhaven.)
T:Halfdan Kjerulf
%%score [ 1 2 3 4 ]
L:1/8
Q:1/4=80
M:2/4
K:A
V:1 treble-8 nm="Tenore I"
V:2 treble-8 nm="Tenore II"
V:3 bass nm="Basso I"
V:4 bass nm="Basso II"
V:1
"^Andantino quasi Allegretto"!p! c4- | c4 | (c4 | d4) | (c2 d3/2 e/ | c2- !fermata!c) z |!p! c4 | %7
w: (Boccca chiusa)|||||||
w: |||||||
w: |||||||
 d2 e!<(! e!<)! |!mf! c c/ c/ ^d d/!<(! G/ | e3/2!<)! e/ !fermata!e2 | %10
w: sti- en, der|styr- ter det skum- men- de|Fos- se- væld.|
w: |||
w: |||
!p! e"^tranquillamente" e/ f/ e e/ e/ | e3/2 f/ e c/ d/ | e e/ f/ e e | %13
w: Luf- ten er skin- nen- de,|blaa- lig hvid; det er|Mid- som- mer sol og|
w: |||
w: |||
!<(! e3/2 f/ e!<)!!f! e/ a/ | g e/ e/ e a | g"^ritard." e !fermata!e2 |:!p! c4- | c4 | (c4 | d4) | %20
w: Mid- dags- tid, det er|Mid- som- mer sol og|Mid- dags- tid.|(c.b.c.)||||
w: |||||||
w: |||||||
 (c2 d3/2 e/ | c2- !fermata!c) z |!p! c4 | d2 e e |!mf! c c ^d d/!<(! G/ | %25
w: |||stil- le, hvor|Fos- sen ha- ster i|
w: |||hel- det har|skin- nende Top _ og|
w: |||ble- ven et|l.i- det glim- ren- de|
 e3/2!<)! e/ !fermata!e!p! e | e3/2 f/ e e/ e/"^tranquillamente" | e3/2 f/ e (c/d/) | %28
w: Dy- bet ned. Der|van- drer El- ven en|øm- lig Vej, selv *|
w: skyg- get Fod. Ved|Sti- en sit- trer med|Søl- ver- blink den *|
w: Fa- bel- land. For|styr ejden dy- be, _|drøm- mende Fred, lad *|
 e (e/ f/) e e |!<(! e e/ f/!<)! e!f! a | g (e/ e/) e a | g"^ritard." e/ e/ !fermata!e2 :| %32
w: Mid- som- mer- sol- en|kjen- der dem ej selv|Mid- som- mer- so- len|kjen- der den ej.|
w: blom- stren- de Lyng, den|mo- se- de Brink, den|blom- stren- de Lyng, den|mo- se- de Brink.|
w: Sko- ven _ skygge dit|hi- gend- de Fjed, lad|Sko- ven * skygge dit|hi- gen- de Fjeld.|
V:2
 z4 | z2!mf! z E | E F/ G/ A B | G2 E2 | B B/ c/ d3/2 B/ | c3/2 c/ !fermata!c E | E F/ G/ A B | %7
w: |1.Til-|fjelds un- der Gra- ne-|li- en|er det er aa- bent|Bak- ke- held, der|slyn- ger sig Sæ- ter|
w: |||||||
w: |||||||
 G2 E!<(! B!<)! |!mf! c c/ c/ c ^B/!<(! G/ | G3/2!<)! c/ !fermata!d2 | %10
w: sti- en, der|styr- ter det skum- men- de|Fos- se- væld.|
w: |||
w: |||
!p! c"^tranquillamente" c/ c/ d B/ c/ | d3/2 d/ c A/ B/ | c c/ c/ d (B/c/) | %13
w: Luf- ten er skin- nen- de,|blaa- lig hvid; det er|Mid- som- mer sol og *|
w: |||
w: |||
!<(! d3/2 d/ c!<)!!f! c/ c/ | e B/ d/ c c | e"^ritard." (B/d/) !fermata!c2 |: z4 | z2!mf! z E | %18
w: Mid- dags- tid, det er|Mid- som- mer sol og|Mid- dags- * tid.||2.De|
w: ||||3.Men|
w: ||||4.Hvor|
 E F/ G/ A B | G2 E G | B B/ c/ d B/ E/ | c3/2 c/ !fermata!c!mf! E | E F/ G/ A B | G2 E B | %24
w: tin- dren- de Straa- ler|spi- le paa|El- ven * un- der den|mør- ke Bred, og|Skum- taa- gen svæ- ver|stil- le, hvor|
w: Skraa- nin- gen un- der|Fjel- det er|svøbt i den gyld- * ne|Straa- le- flod; se,|Gra- nen paa Bak- ke-|hel- det har|
w: en- som og taus er|Kle- ven! der|er in- tet Spor i den|gyld- ne Sand: den|fat- ti- ge Plet er|ble- ven et|
!mf! c c c ^B/!<(! G/ | G3/2!<)! c/ !fermata!d!p! d | c3/2 c/ d B/ c/"^tranquillamente" | %27
w: Fos- sen ha- ster i|Dy- bet ned. Der|van- drer El- ven en|
w: skin- nende Top _ og|skyg- get Fod. Ved|Sti- en sit- trer med|
w: l.i- det glim- ren- de|Fa- bel- land. For|styr ejden dy- be, _|
 d3/2 d/ c (F/G/) | c (c/ c/) d (B/c/) |!<(! d d/ d/!<)! c!f!!f! c | e (B/ d/) c c | %31
w: øm- lig Vej, selv *|Mid- som- mer- sol- en *|kjen- der dem ej selv|Mid- som- mer- so- len|
w: Søl- ver- blink den *|blom- stren- de Lyng, den *|mo- se- de Brink, den|blom- stren- de Lyng, den|
w: drøm- mende Fred, lad *|Sko- ven _ skygge dit *|hi- gend- de Fjed, lad|Sko- ven * skygge dit|
 e"^ritard." B/ d/ !fermata!c2 :| %32
w: kjen- der den ej.|
w: mo- se- de Brink.|
w: hi- gen- de Fjeld.|
V:3
!p! E,4- | E,4 | E,4- | E,4 | E,4- | E,2- !fermata!E, z |!p! E,4 | E,2 E,!<(! G,!<)! | %8
w: (Boccca chiusa)|||||||sti- en, der|
w: ||||||||
w: ||||||||
!mf! A, E,/ E,/ F, F,/!<(! G,/ | G,3/2!<)! G,/ !fermata!G,2 | %10
w: styr- ter det skum- men- de|Fos- se- væld.|
w: ||
w: ||
!p! A,"^tranquillamente" E,/ E,/ E, G,/ G,/ | B,3/2 G,/ A, A,/ A,/ | A, E,/ E,/ E, (G,/A,/) | %13
w: Luf- ten er skin- nen- de,|blaa- lig hvid; det er|Mid- som- mer sol og *|
w: |||
w: |||
!<(! B,3/2 G,/ A,!<)!!f! E,/ E,/ | B, G,/ E,/ E, E, | B,"^ritard." G, !fermata!A,2 |:!p! E,4- | %17
w: Mid- dags- tid, det er|Mid- som- mer sol og|Mid- dags- tid.|(c.b.c.)|
w: ||||
w: ||||
 E,4 | E,4- | E,4 | E,4- | E,2- !fermata!E, z |!p! (E,4 | E,3) G, |!mf! A, E, F, F,/!<(! G,/ | %25
w: ||||||* hvor|Fos- sen ha- ster i|
w: ||||||* har|skin- nende Top _ og|
w: ||||||* et|l.i- det glim- ren- de|
 G,3/2!<)! G,/ !fermata!G,!p! G, | A,"^tranquillamente" E, E, G,/ G,/ | B,3/2 G,/ A, A, | %28
w: Dy- bet ned. Der|van- drer El- ven en|øm- lig Vej, selv|
w: skyg- get Fod. Ved|Sti- en sit- trer med|Søl- ver- blink den|
w: Fa- bel- land. For|styr ejden dy- be, _|drøm- mende Fred, lad|
 A, (E,/ E,/) E, (G,/A,/) |!<(! B, B,/ G,/!<)! A,!f!!f! E, | B, (G,/ E,/) E, E, | %31
w: Mid- som- mer- sol- en *|kjen- der dem ej selv|Mid- som- mer- so- len|
w: blom- stren- de Lyng, den *|mo- se- de Brink, den|blom- stren- de Lyng, den|
w: Sko- ven _ skyge dit *|hi- gend- de Fjed, lad|Sko- ven * skygge dit|
 B,"^ritard." G,/ G,/ !fermata!A,2 :| %32
w: kjen- der den ej.|
w: mo- se- de Brink.|
w: hi- gen- de Fjeld.|
V:4
!p! A,,4- | A,,4 | A,,4- | A,,4 | A,,4- | A,,2- !fermata!A,, z |!p! A,,4 | E,2 E,!<(! E,!<)! | %8
w: (Boccca chiusa)|||||||sti- en, der|
w: ||||||||
w: ||||||||
!mf! A,, A,,/ A,,/ A,, G,,/!<(! G,,/ | C,3/2!<)! C,/ !fermata!B,,2 | %10
w: styr- ter det skum- men- de|Fos- se- væld.|
w: ||
w: ||
!p! A,,"^tranquillamente" E,/ E,/ G, E,/ E,/ | E,3/2 E,/ A,, A,,/ A,,/ | A,, E,/ E,/ G, E, | %13
w: Luf- ten er skin- nen- de,|blaa- lig hvid; det er|Mid- som- mer sol og|
w: |||
w: |||
!<(! E,3/2 E,/ A,,!<)!!f! E,/ E,/ | E, E,/ E,/ A,, E, | E,"^ritard." E, !fermata!A,,2 |:!p! A,,4- | %17
w: Mid- dags- tid, det er|Mid- som- mer sol og|Mid- dags- tid.|(c.b.c.)|
w: ||||
w: ||||
 A,,4 | A,,4- | A,,4 | A,,4- | A,,2- !fermata!A,, z |!p! (A,,4 | E,3) E, | %24
w: ||||||* hvor|
w: ||||||* har|
w: ||||||* et|
!mf! A,, A,, A,, G,,/!<(! G,,/ | C,3/2!<)! C,/ !fermata!B,,!p! B,, | %26
w: Fos- sen ha- ster i|Dy- bet ned. Der|
w: skin- nende Top _ og|skyg- get Fod. Ved|
w: l.i- det glim- ren- de|Fa- bel- land. For|
 A,,"^tranquillamente" E, G, E,/ E,/ | E,3/2 E,/ A,, A,, | A,, (E,/ E,/) G, E, | %29
w: van- drer El- ven en|øm- lig Vej, selv|Mid- som- mer- sol- en|
w: Sti- en sit- trer med|Søl- ver- blink den|blom- stren- de Lyng, den|
w: styr ejden dy- be, _|drøm- mende Fred, lad|Sko- ven _ skyge dit|
!<(! E, E,/ E,/!<)! A,,!f!!f! E, | E, E,/- E,/ A,, E, | E,"^ritard." E,/ E,/ !fermata!A,,2 :| %32
w: kjen- der dem ej selv|Mid- som- mer- so- len|kjen- der den ej.|
w: mo- se- de Brink, den|blom- stren- de Lyng, den|mo- se- de Brink.|
w: hi- gend- de Fjed, lad|Sko- ven * skygge dit|hi- gen- de Fjeld.|

